outputs/icons/communication/message_sharp.svg

<svg xmlns="http://www.w3.org/2000/svg" width="1200" height="1200" fill="none"><g clip-path="url(#a)"><path fill="#000" d="M1100 100H100.5l-.5 1000 200-200h800zM700 700H300V600h400zm200-150H300V450h600zm0-150H300V300h600z"/></g><defs><clipPath id="a"><path fill="#fff" d="M0 0h1200v1200H0z"/></clipPath></defs></svg>

<svg width="1200" height="1200" viewBox="0 0 1200 1200" fill="none" xmlns="http://www.w3.org/2000/svg"><g clip-path="url(#clip0_124_696)"><path d="M1100 100H100.5L100 1100L300 900H1100V100ZM700 700H300V600H700V700ZM900 550H300V450H900V550ZM900 400H300V300H900V400Z" fill="#1D1E23"/></g><defs><clipPath id="clip0_124_696"><path width="24" fill="white" d="M0 0H1200V1200H0V0z"/></clipPath></defs></svg>
